app/images/nav_icons/search.svg

<svg width="16" height="17" viewBox="0 0 16 17" fill="none" xmlns="http://www.w3.org/2000/svg">
<path fill-rule="evenodd" clip-rule="evenodd" d="M3.70203 7.07582C4.0576 7.0108 4.38192 7.20656 4.4475 7.56049C4.54409 8.14188 4.80307 8.62688 5.22718 9.04945C5.64833 9.43769 6.16926 9.72692 6.72121 9.82628C7.04565 9.89164 7.27339 10.2155 7.20781 10.5695C7.14235 10.8927 6.84904 11.125 6.49358 11.0845C5.68254 10.9231 4.9372 10.5351 4.3508 9.95406C3.76749 9.37299 3.3776 8.62688 3.21542 7.81835C3.14985 7.46441 3.34326 7.14184 3.70203 7.07582ZM6.98019 0.99646C10.4455 0.99646 13.2589 3.79659 13.2589 7.25296C13.2589 8.18209 13.0561 9.06481 12.6911 9.85732L15.0273 11.8934C16.7303 13.6395 15.7728 15.1592 15.3205 15.6102C14.8994 16.0638 13.3274 17.0247 11.5901 15.3184L9.53153 12.9683C8.75174 13.3134 7.89091 13.5065 6.98317 13.5065C3.5148 13.5065 0.70459 10.7054 0.70459 7.24969C0.70459 3.79398 3.51171 0.99646 6.98019 0.99646ZM12.5259 14.5131C12.819 14.837 13.6519 15.3805 14.4066 14.7392C14.6157 14.5631 15.0398 13.6706 14.1789 12.8656L12.0174 10.9858C11.6337 11.4983 11.1752 11.9525 10.6544 12.3257L12.5259 14.5131ZM6.98019 12.2009C9.72185 12.2009 11.9457 9.98478 11.9457 7.25296C11.9457 4.52113 9.72185 2.30536 6.98019 2.30536C4.23841 2.30536 2.01461 4.52113 2.01461 7.25296C2.01461 9.98478 4.23533 12.2009 6.98019 12.2009Z" fill="#243F4D"/>
</svg>

<svg width="16" height="17" fill="none" xmlns="http://www.w3.org/2000/svg"><path fill-rule="evenodd" clip-rule="evenodd" d="M3.702 7.076c.356-.065.68.13.745.484.097.582.356 1.067.78 1.49.421.388.942.677 1.494.776.325.066.552.39.487.743a.643.643 0 01-.714.515 4.2 4.2 0 01-2.143-1.13 4.164 4.164 0 01-1.136-2.136c-.065-.354.128-.676.487-.742zM6.98.996c3.465 0 6.279 2.8 6.279 6.257a6.21 6.21 0 01-.568 2.604l2.336 2.036c1.703 1.746.746 3.266.293 3.717-.42.454-1.993 1.415-3.73-.292l-2.058-2.35a6.283 6.283 0 01-2.549.539c-3.468 0-6.278-2.802-6.278-6.257C.705 3.794 3.512.996 6.98.996zm5.546 13.517c.293.324 1.126.867 1.88.226.21-.176.634-1.068-.227-1.873l-2.162-1.88a6.267 6.267 0 01-1.363 1.34l1.872 2.187zM6.98 12.201c2.742 0 4.966-2.216 4.966-4.948S9.722 2.305 6.98 2.305 2.015 4.521 2.015 7.253s2.22 4.948 4.965 4.948z" fill="#243F4D"/></svg>
